fs/heart_20_regular.svg

<svg viewBox="0 0 20 20" fill="none" xmlns="http://www.w3.org/2000/svg" height="1em" width="1em">
  <path d="M10.4965 16.8028L16.7408 10.4994C18.4252 8.78856 18.4199 6.02549 16.7239 4.31249C15.0611 2.63292 12.3961 2.5895 10.6978 4.19086C10.6612 4.22539 10.6251 4.26068 10.5894 4.29673L9.99299 4.90026L9.38843 4.28963C9.35529 4.25616 9.32175 4.22333 9.28783 4.19116C7.58595 2.57726 4.91654 2.60193 3.26122 4.2739C1.5729 5.9792 1.58114 8.75004 3.27679 10.4627L9.55368 16.8028C9.81404 17.0657 10.2362 17.0657 10.4965 16.8028ZM11.3 5.00029C12.5964 3.69135 14.7025 3.69204 16.0133 5.01604C17.3253 6.34123 17.3272 8.47734 16.0292 9.79681L16.0282 9.79783L10.0252 15.8577L3.98743 9.75919C2.67408 8.43263 2.67286 6.28953 3.97185 4.97746C5.26525 3.67106 7.36984 3.67208 8.6778 4.99319L9.63801 5.96306C9.8338 6.16082 10.1534 6.16067 10.349 5.96272L11.3 5.00029Z" fill="#212121"/>
</svg>

<svg viewBox="0 0 20 20" fill="none" xmlns="http://www.w3.org/2000/svg" height="1em" width="1em">
  <path d="m10.496 16.803 6.245-6.304a4.408 4.408 0 0 0-.017-6.187 4.306 4.306 0 0 0-6.135-.015l-.596.603-.605-.61a4.301 4.301 0 0 0-6.127-.016c-1.688 1.705-1.68 4.476.016 6.189l6.277 6.34c.26.263.682.263.942 0ZM11.3 5a3.306 3.306 0 0 1 4.713.016 3.408 3.408 0 0 1 .016 4.78v.002l-6.004 6.06-6.038-6.099c-1.313-1.326-1.314-3.47-.015-4.782a3.302 3.302 0 0 1 4.706.016l.96.97a.5.5 0 0 0 .711 0L11.3 5Z" fill="#212121"/>
</svg>
